app/img/icons/benefits-icon-2.svg

<svg width="32" height="32" viewBox="0 0 32 32" fill="none" xmlns="http://www.w3.org/2000/svg">
<path d="M17.232 18.332V17.774C17.232 17.0935 16.6805 16.542 16.0005 16.542C15.32 16.542 14.7685 17.0935 14.7685 17.774V18.332C14.7685 19.0125 15.32 19.564 16.0005 19.564C16.68 19.564 17.232 19.0125 17.232 18.332Z" fill="#F0145A"/>
<path d="M18.077 19.0135C17.804 19.907 16.9815 20.563 16.0005 20.563C15.019 20.563 14.1965 19.907 13.9235 19.0135H5.43904C4.90354 19.0135 4.39754 18.889 3.94354 18.673V24.3065C3.94354 25.4065 4.84354 26.3065 5.94354 26.3065H26.0565C27.1565 26.3065 28.0565 25.4065 28.0565 24.3065V18.6735C27.602 18.8895 27.0965 19.014 26.561 19.014H18.077V19.0135Z" fill="#F0145A"/>
<path d="M26.4775 8.89748H21.677C21.387 7.08448 19.8165 5.69348 17.923 5.69348H14.0765C12.183 5.69348 10.613 7.08448 10.3225 8.89748H5.52253C4.37653 8.89748 3.43903 9.79748 3.43903 10.8975V15.514C3.43903 16.6185 4.33453 17.514 5.43903 17.514H13.829C13.8575 16.9385 14.1045 16.4215 14.495 16.0475C14.507 16.036 14.521 16.027 14.5335 16.016C14.62 15.9365 14.71 15.8615 14.8085 15.7965C14.8435 15.773 14.8835 15.757 14.92 15.736C15.001 15.6895 15.081 15.641 15.1685 15.605C15.237 15.5765 15.311 15.56 15.383 15.5385C15.445 15.52 15.504 15.4955 15.5685 15.4825C15.708 15.454 15.8525 15.439 16 15.439C16.148 15.439 16.292 15.4545 16.4315 15.4825C16.4955 15.4955 16.5545 15.52 16.6165 15.5385C16.6885 15.56 16.7625 15.5765 16.831 15.6055C16.918 15.6415 16.9975 15.6895 17.0785 15.736C17.1155 15.7575 17.1555 15.7735 17.191 15.797C17.2895 15.8615 17.379 15.9365 17.4655 16.016C17.478 16.0275 17.4925 16.0365 17.5045 16.0485C17.8955 16.4225 18.142 16.9395 18.1705 17.515H26.5605C27.665 17.515 28.5605 16.6195 28.5605 15.515V10.8985C28.561 9.79748 27.6235 8.89748 26.4775 8.89748ZM12.248 8.89748C12.503 8.12698 13.2215 7.56548 14.0765 7.56548H17.923C18.778 7.56548 19.4965 8.12698 19.7515 8.89748H12.248Z" fill="#F0145A"/>
</svg>

<svg xmlns="http://www.w3.org/2000/svg" width="32" height="32" fill="#f0145a" xmlns:v="https://vecta.io/nano"><path d="M17.232 18.332v-.558a1.232 1.232 0 1 0-2.463 0v.558a1.232 1.232 0 1 0 2.464 0zm.845.682c-.273.893-1.096 1.549-2.077 1.549s-1.804-.656-2.077-1.549H5.439a3.47 3.47 0 0 1-1.496-.341v5.634c0 1.1.9 2 2 2h20.113c1.1 0 2-.9 2-2v-5.633a3.47 3.47 0 0 1-1.495.34h-8.484 0zm8.401-10.117h-4.8a3.81 3.81 0 0 0-3.754-3.204h-3.846a3.81 3.81 0 0 0-3.754 3.204h-4.8c-1.146 0-2.083.9-2.083 2v4.616a2 2 0 0 0 2 2h8.39a2.17 2.17 0 0 1 .666-1.466c.012-.011.026-.02.039-.032a2.24 2.24 0 0 1 .275-.219c.035-.024.075-.04.111-.06l.248-.131c.069-.029.143-.045.214-.066l.186-.056a2.19 2.19 0 0 1 .862 0c.064.013.123.037.185.056l.215.067c.087.036.166.084.247.131l.113.061c.099.064.188.139.274.219l.039.033a2.17 2.17 0 0 1 .666 1.467h8.39a2 2 0 0 0 2-2v-4.616c0-1.101-.937-2.001-2.083-2.001zm-14.229 0a1.93 1.93 0 0 1 1.829-1.332h3.846a1.93 1.93 0 0 1 1.829 1.332h-7.504z"/></svg>
